X: 3
T: Ash Grove v.3
P: piffero terzo a0211
O: Greg Bacon
%R: waltz
F: http://ancients.sudburymuster.org/mus/col/pdf/hymnsF.pdf
Z: 2020 John Chambers <jc:trillian.mit.edu>
M: 3/4
L: 1/8
K: G
z2 |\
G4D2 | G2B2AG | F2G2A2 | DEFGA2 |\
G3FE2 | G4E2 | F4A2 | G4 :: z2 |\
dcBAG2 | GABcd2 | c3BA2 | A3Bc2 |
BAG2F2 | G2A2B2 | F2D2E2 | F3GA2 |\
G4D2 | G2B2AG | F2G2A2 | DEFGA2 |\
G3FE2 | G4E2 | F4A2 | G4 :|
%%text May be played an octave higher.
